X:1
T:Title
%%score { ( 1 3 ) | ( 2 4 ) }
L:1/8
Q:1/4=104
M:4/4
K:C
V:1 treble nm="Grand Piano"
V:3 treble 
V:2 bass 
V:4 bass 
V:1
 [EG]2 [EG]2 [Ec]3 [EB] | A2 A2 d3 c | B2 F2 B3 A | [EA]2 [EG]2 [CE]4 | [EG]2 [EG]2 [Ec]3 [EB] | %5
w: C.~Austin~Miles * * *|||||
 A2 A2 d3 c | B2 G2 e3 d |[M:3/4] [Ec]6 |[M:1/4] E>F |[M:4/4] z2 E>E E2 c>B | A6 z2 | z2 d4 z2 | %12
w: |||||||
[M:3/4] [Ec]2 [Ge]4 |[M:1/4] E>F |[M:4/4] z2 E>E E2 c>B | A6 z2 | B2 G2 e3 d |[M:3/4] c6 |] %18
w: ||||||
V:2
 [C,C]2 [C,C]2 [C,G,]3 [C,C] | [F,CF]2[K:treble] [F,CF]2 [F,A,F]3 [F,DF] | %2
 [G,DF]2 [G,B,]2 [G,DF]3 [G,B,F] | [C,C]2 [C,C]2 [C,G,]4 | [C,C]2 [C,C]2 [C,G,]3 [C,C] | %5
 [F,CF]2 [F,CF]2 [F,A,F]3 [F,DF] | [G,DF]2 [G,B,F]2 [G,CG]3 [G,B,F] |[M:3/4][K:bass] [C,G,]6 | %8
[M:1/4] z2 |[M:4/4] z2 [C,C]>[C,C] [C,C]2 z2 | z2 [F,C]>[F,C] [F,C]2 z2 | %11
 z2[K:treble] [G,B,F]>[G,B,] [G,B,]2 [G,DF]2 |[M:3/4][K:bass] [C,C]2 [C,C]4 |[M:1/4] z2 | %14
[M:4/4] z2 [C,C]>[C,C] [C,C]2 z2 | z2 [F,C]>[F,C] [F,C]2 [F,A,F]>[F,DF] | %16
 [G,DF]2 [G,B,F]2 [G,CG]3 [G,B,F] |[M:3/4][K:bass] G,2 A,2 G,2 |] %18
V:3
 x8 | x8 | x8 | x8 | x8 | x8 | x8 |[M:3/4] x6 |[M:1/4] x2 |[M:4/4] G6 z2 | z2 F>F F2 d>c | %11
 B2 z z/ F/ F2 B2 |[M:3/4] x6 |[M:1/4] x2 |[M:4/4] G6 z2 | z2 F>F F2 d>c | x8 |[M:3/4] E2 F2 E2 |] %18
V:4
 x8 | x2[K:treble] x6 | x8 | x8 | x8 | x8 | x8 |[M:3/4][K:bass] x6 |[M:1/4] x2 |[M:4/4] x8 | x8 | %11
 x2[K:treble] x6 |[M:3/4][K:bass] x6 |[M:1/4] x2 |[M:4/4] x8 | x8 | x8 |[M:3/4][K:bass] C,6 |] %18

